X: 119
T: No_46_Ca'wûno'ga_Song_(a).krn
%%abc-version 2.0
%%abcx-abcm2ps-target-version 5.9.1 (29 Sep 2008)
%%abc-creator hum2abc beta
%%abcx-conversion-date 2020/08/10 18:54:56
%%gracespace 0 6 6
%%humdrum-veritas 1432378745
%%humdrum-veritas-data 3368267336
%%linebreak <none>
%%barnumbers 0
L: 1/8
M: 2/4
%%staves {1 2}
V: 1 clef=bass
V: 2 clef=bass
K: Ab
[V:1] [K:clef=bass][M:2/4]B,>B,C2 ||  
[V:2] [K:clef=bass][M:2/4]G,,G,, G,,G,, ||  
[V:1] [M:3/4]C>B,B,2!fermata!B,2 ||  
[V:2] [M:3/4]z6 ||  
[V:1] [M:2/4]F>FE2 | 
[V:2] [M:2/4]z4 | 
[V:1] E/>B,/B, B,/>B,/B, ||  
[V:2] z4 ||  
[V:1] [M:3/4]_G,>F,F,2!fermata!F,2 | 
[V:2] [M:3/4]z6 | 
[V:1] C>CB,2B,/>B,/!fermata!A, ||  
[V:2] z6 ||  
[V:1] [M:2/4]B,/>B,/B, _G,3/F,/ | 
[V:2] [M:2/4]z4 | 
[V:1] F,2-F,3/C,/ | 
[V:2] z4 | 
[V:1] (3F,F,F, F,(3:2:2F,/C, | 
[V:2] z4 | 
[V:1] (3F,F,F, F,(3:2:2F,/C, |]  
[V:2] z4 |]  


